picto/cog-railway-left-framed.svg

<svg class="color-immutable" width="30" height="30" viewBox="0 0 30 30" fill="none" xmlns="http://www.w3.org/2000/svg"><path d="M30 0H0V30H30V0Z" fill="#2D327D"/><path d="M25.5 3C26.325 3 27 3.675 27 4.5V25.5C27 26.325 26.325 27 25.5 27H4.5C3.675 27 3 26.325 3 25.5V4.5C3 3.675 3.675 3 4.5 3H25.5ZM25.5 2.625H4.5C3.46613 2.625 2.625 3.46613 2.625 4.5V25.5C2.625 26.5339 3.46613 27.375 4.5 27.375H25.5C26.5339 27.375 27.375 26.5339 27.375 25.5V4.5C27.375 3.46613 26.5339 2.625 25.5 2.625Z" fill="white"/><path d="M5.99951 5.99978V6.37583L24 7.9515V7.57455L5.99951 5.99978Z" fill="white"/><path d="M14.3075 20.8187L10.5348 20.4881C10.7782 21.3628 11.5753 21.9681 12.4829 21.9681C13.2614 21.9681 13.9721 21.5216 14.3075 20.8187Z" fill="white"/><path d="M18.5682 10.1985L14.631 7.44547L10.2747 9.47332L12.3483 11.1604L7.64097 10.7491C7.61307 10.7462 7.58517 10.7445 7.55637 10.7445C7.0511 10.7445 6.6293 11.1316 6.58467 11.6349L5.94455 18.9571C5.94275 18.9682 5.94275 18.9784 5.94275 18.9895C5.94275 19.1836 6.09132 19.3461 6.2855 19.3638L24 20.9143V16.6219L19.8827 16.2625C19.6886 16.2448 19.5408 16.0823 19.5408 15.8883C19.5408 15.8772 19.5418 15.867 19.5418 15.8558L19.8037 12.866C19.8205 12.6728 19.9821 12.5243 20.1772 12.5243C20.1883 12.5243 20.1995 12.5243 20.2097 12.5262L24 12.8577V12.1798L16.2335 11.5001L18.5682 10.1985ZM9.56682 11.971L9.3059 14.9597C9.2891 15.1537 9.12657 15.3023 8.9324 15.3023C8.9213 15.3023 8.9111 15.3014 8.89985 15.3005L7.29357 15.1603H7.29267C7.09955 15.1426 6.95082 14.9811 6.95082 14.786C6.95082 14.775 6.95172 14.7647 6.95172 14.7536L7.21377 11.7647C7.23042 11.5717 7.3931 11.4232 7.58727 11.4232C7.59837 11.4232 7.60947 11.4232 7.62072 11.4241L9.22595 11.5651C9.42012 11.5819 9.56885 11.7443 9.56885 11.9383C9.56877 11.9497 9.56877 11.9608 9.56682 11.971ZM11.3887 12.2431L11.0152 16.502C10.9902 16.7926 10.7467 17.0155 10.455 17.0155C10.1447 17.0155 9.89292 16.7638 9.89292 16.4537C9.89292 16.437 9.89292 16.4203 9.8948 16.4035L10.2672 12.1455C10.2933 11.8549 10.5357 11.632 10.8274 11.632C11.1377 11.632 11.3904 11.8836 11.3904 12.1947C11.3905 12.2105 11.3896 12.2272 11.3887 12.2431ZM13.1817 12.3999L12.8082 16.6589C12.7831 16.9496 12.5406 17.1724 12.248 17.1724C11.9376 17.1724 11.686 16.9208 11.686 16.6098C11.686 16.593 11.6869 16.5773 11.6878 16.5606L12.0613 12.3025C12.0855 12.0118 12.3288 11.7889 12.6206 11.7889C12.9318 11.7889 13.1835 12.0406 13.1835 12.3517C13.1835 12.3684 13.1826 12.3841 13.1817 12.3999ZM11.5373 9.63022L14.564 8.2218L17.2981 10.1344L15.035 11.3953L13.5467 11.2654L11.5373 9.63022ZM18.7901 12.4018C18.9843 12.4185 19.132 12.5811 19.132 12.7751C19.132 12.7862 19.132 12.7973 19.1311 12.8084L18.8691 15.7964C18.8524 15.9904 18.6908 16.139 18.4957 16.139C18.4845 16.139 18.4734 16.139 18.4632 16.1371L13.9425 15.7417C13.7494 15.7249 13.6007 15.5624 13.6007 15.3684C13.6007 15.3572 13.6016 15.3461 13.6016 15.3359L13.8636 12.3471C13.8804 12.1531 14.042 12.0045 14.2371 12.0045C14.2482 12.0045 14.2593 12.0054 14.2695 12.0063L18.7901 12.4018Z" fill="white"/><path d="M18.791 21.2104L15.0173 20.8808C15.2608 21.7555 16.0579 22.3609 16.9665 22.3609C17.7449 22.361 18.4547 21.9134 18.791 21.2104Z" fill="white"/><path d="M5.99951 22.425L24 24.0006V23.3599L5.99951 21.7852V22.425Z" fill="white"/></svg>

<svg class="color-immutable" width="30" height="30" viewBox="0 0 30 30" fill="none" xmlns="http://www.w3.org/2000/svg"><g clip-path="url(#a)"><path d="M30 0H0v30h30V0Z" fill="#2D327D"/><path d="M25.5 3c.825 0 1.5.675 1.5 1.5v21c0 .825-.675 1.5-1.5 1.5h-21c-.825 0-1.5-.675-1.5-1.5v-21C3 3.675 3.675 3 4.5 3h21Zm0-.375h-21A1.877 1.877 0 0 0 2.625 4.5v21c0 1.034.841 1.875 1.875 1.875h21a1.877 1.877 0 0 0 1.875-1.875v-21A1.877 1.877 0 0 0 25.5 2.625Z" fill="#fff"/><path d="M6 6v.376L24 7.95v-.376L6 6ZM14.307 20.819l-3.772-.33a2.023 2.023 0 0 0 3.772.33ZM18.568 10.198l-3.937-2.753-4.356 2.028 2.073 1.687-4.707-.41a.977.977 0 0 0-1.056.886l-.64 7.321c-.002.011-.002.021-.002.032 0 .195.148.357.343.375L24 20.914v-4.292l-4.117-.36a.376.376 0 0 1-.342-.374v-.032l.263-2.99a.374.374 0 0 1 .373-.342c.011 0 .023 0 .033.002l3.79.332v-.678l-7.767-.68 2.335-1.302Zm-9.001 1.773-.261 2.989a.375.375 0 0 1-.374.342c-.01 0-.02 0-.032-.002l-1.606-.14h-.001a.376.376 0 0 1-.342-.374v-.032l.263-2.99a.375.375 0 0 1 .407-.34l1.605.141c.194.017.343.18.343.373 0 .012 0 .023-.002.033Zm1.822.272-.374 4.259a.562.562 0 0 1-1.122-.048c0-.017 0-.034.002-.05l.372-4.258a.563.563 0 0 1 1.122.097Zm1.793.157-.374 4.259a.561.561 0 0 1-1.122-.05c0-.016 0-.032.002-.048l.373-4.258a.562.562 0 0 1 1.122.05l-.001.047Zm-1.645-2.77 3.027-1.408 2.734 1.912-2.263 1.261-1.488-.13-2.01-1.635Zm7.253 2.772c.194.017.342.18.342.373v.033l-.263 2.988a.374.374 0 0 1-.373.343c-.011 0-.023 0-.033-.002l-4.52-.395a.375.375 0 0 1-.342-.374v-.032l.263-2.989a.374.374 0 0 1 .405-.34l4.521.395ZM18.791 21.21l-3.774-.33a2.023 2.023 0 0 0 3.774.33ZM6 22.425l18 1.576v-.641L6 21.785v.64Z" fill="#fff"/></g><defs><clipPath id="a"><path fill="#fff" d="M0 0h30v30H0z"/></clipPath></defs></svg>
